packages/icons/src/crop.svg

<svg width="15" height="15" viewBox="0 0 15 15" fill="none" xmlns="http://www.w3.org/2000/svg">
  <path
    fill-rule="evenodd"
    clip-rule="evenodd"
    d="M3.5 8.00684e-07C3.77614 7.88614e-07 4 0.223859 4 0.500001L4 3.00006L11.5 3.00006C11.7761 3.00006 12 3.22392 12 3.50006L12 11.0001L14.5 11C14.7761 11 15 11.2238 15 11.5C15 11.7761 14.7762 12 14.5 12L12 12.0001L12 14.5C12 14.7761 11.7761 15 11.5 15C11.2239 15 11 14.7761 11 14.5L11 12.0001L3.5 12.0001C3.22386 12.0001 3 11.7762 3 11.5001L3 4.00005L0.499989 4C0.223847 4 -6.10541e-06 3.77613 -5.02576e-07 3.49999C5.13006e-06 3.22385 0.223867 3 0.50001 3L3 3.00005L3 0.500001C3 0.223859 3.22386 8.12755e-07 3.5 8.00684e-07ZM4 4.00006L4 11.0001L11 11.0001L11 4.00006L4 4.00006Z"
    fill="currentColor"
  />
</svg>

<svg xmlns="http://www.w3.org/2000/svg" width="15" height="15" fill="none"><path fill="currentColor" fill-rule="evenodd" d="M3.5 0a.5.5 0 0 1 .5.5V3h7.5a.5.5 0 0 1 .5.5V11h2.5a.5.5 0 1 1 0 1H12v2.5a.5.5 0 0 1-1 0V12H3.5a.5.5 0 0 1-.5-.5V4H.5a.5.5 0 1 1 0-1H3V.5a.5.5 0 0 1 .5-.5M4 4v7h7V4z" clip-rule="evenodd"/></svg>
